src/actions/24/document-close.svg

<svg xmlns="http://www.w3.org/2000/svg" viewBox="0 0 24 24">
    <path fill="currentColor" d="m14.707 15-.707.707 1.793 1.793L14 19.293l.707.707 1.793-1.793L18.293 20l.707-.707-1.793-1.793L19 15.707 18.293 15 16.5 16.793Z" style="color:#d98c8c"/>
    <path fill="currentColor" d="M8 4C6.338 4 5 5.338 5 7v10c0 1.662 1.338 3 3 3h5v-1H8c-1.108 0-2-.892-2-2V7c0-1.108.892-2 2-2h6v2c0 1.108.892 2 2 2h2v5h1V8l-4-4z" style="color:#050505;opacity:.7"/>
</svg>

<svg version="1.1" viewBox="0 0 24 24" xmlns="http://www.w3.org/2000/svg">
 <defs>
        <style type="text/css" id="current-color-scheme">
            .ColorScheme-Text {
                color:#363636;
            }
            .ColorScheme-NegativeText {
                color:#d19494;
            }
        </style>
 </defs>
 <path class="ColorScheme-NegativeText" d="M 14.707,15 14,15.707 15.793,17.5 14,19.293 14.707,20 16.5,18.207 18.293,20 19,19.293 17.207,17.5 19,15.707 18.293,15 16.5,16.793 Z" fill="currentColor"/>
 <path class="ColorScheme-Text" d="m8 4c-1.662 0-3 1.338-3 3v10c0 1.662 1.338 3 3 3h5v-1h-5c-1.108 0-2-0.892-2-2v-10c0-1.108 0.892-2 2-2h6v2c0 1.108 0.892 2 2 2h2v5h1v-6l-4-4z" fill="currentColor"/>
</svg>
